X:1
T:Alma Redemptoris Mater - Anerio
T:#
%%score { 1 | 2 } 3
L:1/8
Q:1/4=200
M:none
K:F
V:1 treble nm="Soprano I" snm="S"
V:2 treble 
V:3 treble-8 nm="Tenor" snm="T"
V:1
"^Alma Redemptoris Mater""^Felice Anerio\n(c. 1560-1614)" F2 A2 B2 c2 d2 e2 f2 e2 d2 c2 B2 c2 d2 c2 A4 || %1
w: Al\- * * * * * * * * * * * * * ma|
[Q:1/4=200] c8 c8 F8 (G8 A8) (B8 A8 G8) | x16 | x16 | x16 |[M:4/2] F8 z4 c4 | e12 f4 | d8 c8 | %8
w: Re- dem- pto- ris * Ma\- * *||||ter, quae|per- vi-|a coe-|
 A4 d8 c4 | B8 A8 | z4 f4 (e2 d2 e2 f2 | g4) f4 e6 dc | d8 c8 | z16 | z16 | z4 F4 G4 A2 B2 | %16
w: li por- ta|ma- nes.|et stel\- * * *|* la ma\- * *|* ris,|||suc- cur- re ca-|
 G4 F2 f2 e4 f2 d2 | e4 f4 c4 d4 | e2 f2 d4 c2 A2 B4 | A2 F2 G4 A2 B2 G4 | F8 c6 c2 | B4 c4 d4 c4 | %22
w: den- ti, suc- cur- re ca-|den- ti, suc- cur-|re ca- den- ti, suc- cur-|re ca- den- ti, ca- den-|ti, sur- ge-|re qui cu- rat|
 B6 B2 A8 | (f6 e2 d4) c4 | d4 e4 f8 | f8 z8 | z8 z4 c4 | A4 B8 A4 | G8 F4 F4 | A4 A2 B2 c8 | %30
w: po- pu- lo:|tu * * quae|ge- nu- i-|sti,|tu|quae ge- nu-|i- sti, na-|tu- ra mi- ran-|
 F8 z4 c4- | c4 A4 B4 c4 | d4 c4 =B8 | c4 (A8 G2 F2 | G4) F4 G4 A4 | B4 A4 d8 | c8 f8 | d4 e8 c4 | %38
w: te, tu\-|* um san- ctam|Ge- ni- to-|rem, tu\- * *|* um san- ctam|Ge- ni- to-|rem, Vir-|go pri- us|
 d6 d2 c4 B4 | A4 c8 d4 | c4 B4 c8 | c4 f8 e4 | d4 c4 (c8 | F6 G2 A2 B2 c4- | c4 =B4) c8 | %45
w: ac po- ste- ri-|us, Ga- bri-|e- lis o-|re su- mens|il- lud A\-||* * ve|
 A8 F4 G4- | G4 E4 F2 D2 (F4- | F2 ED E4) F4[Q:1/4=198] c4- | %48
w: pec- ca- to\-|* rum mi- se- re\-|* * * * re, pec\-|
[Q:1/4=196] c4[Q:1/4=193] A4[Q:1/4=190] B8 |[Q:1/4=186] G4[Q:1/4=183] (A8[Q:1/4=179] B4- | %50
w: * ca- to-|rum mi\- *|
[Q:1/4=177] B4)[Q:1/4=175] A4[Q:1/4=172] G8 |[Q:1/4=170] A16 |] %52
w: * se- re-|re.|
V:2
 z16 z16 || A8 G4 (A4- x48 | A2 G2 F2 E2 D4) E4 | (F4 E2 F2 D2 C2 D2 E2 | F2 G2 A2 F2 B8) | %5
w: |Re- dem- pto\-|* * * * * ris|Ma\- * * * * * *||
[M:4/2] A4 F4 (A6 B2 | c4) A4 G4 (F4- | F4 E2 D2 E4) C4 | F8 D8- | D4 E4 F4 c4 | %10
w: ter, quae per\- *|* vi- a coe\-|* * * * li|por- ta|* ma- nes, et|
 A2 G2 A2 B2 c2 B2 c2 A2 | B2 c2 d8 c4- | c4 =B4 c4 (F4 | E2 D2 E2 F2 G2 E2 F2 G2 | A4) A4 G8 | %15
w: stel\- * * * * * * *|* * * la|* ma- ris, stel\-||* la ma-|
 A8 z8 | z4 A4 G4 A2 B2 | G4 F4 z8 | z2 F4 D2 E2 F2 D4 | C2 D2 E4 F2 D2 E4 | F4 A6 A2 A4 | %21
w: ris,|suc- cur- re ca-|den- ti,|suc- cur- re ca- den-|ti, suc- cur- re ca- den-|ti, sur- ge- re|
 G4 F4 F4 A4- | A4 G4 A4 c4 | A4 B8 A4 | G8 F4 B4 | (A2 G2 F2 G2) A4 c4 | B8 A8 | (f6 e2 d4) c4 | %28
w: qui cu- rat po\-|* pu- lo: tu|quae ge- nu-|i- sti, tu|quae * * * ge- nu-|i- sti,|tu * * quae|
 d4 e4 f8 | c4 F4 G4 G2 A2 | B4 A4 z4 A4- | A4 F4 G4 E4 | F4 E4 D8 | C4 F8 E2 D2 | E4 C4 D4 E4 | %35
w: ge- nu- i-|sti, na- tu- ra mi-|ran- te, tu\-|* um san- ctam|Ge- ni- to-|rem, tu\- * *|* um san- ctam|
 F4 E4 (F4 G4) | A4 A8 F4 | G8 E4 F4- | F4 D4 E6 E2 | F8 A8- | A4 B4 A4 G4 | A8 G8 | A12 G4 | %43
w: Ge- ni- to\- *|rem, Vir- go|pri- us ac|* po- ste- ri-|us, Ga\-|* bri- e- lis|o- re|su- mens|
 A4 B4 c2 d2 e2 c2 | f8 e4 c4- | c4 A4 B8 | G4 A8 B4 | G8 A8 | A8 F4 G4- | G4 E4 F2 D2 G4 | %50
w: il- lud A\- * * *|* ve pec\-|* ca- to-|rum mi- se-|re- re,|pec- ca- to\-|* rum mi\- * *|
 E4 (F8 E4) | F16 |] %52
w: se- re\- *|re.|
V:3
 z16 z16 || f8 e4 (f4- x48 | f2 e2 d2 c2 B2 A2) G4 | (F2 G2 A2 F2 G2 A2 B2 c2 | d2 e2 f8 e4) | %5
w: |Re- dem- pto\-|* * * * * * ris|Ma\- * * * * * * *||
[M:4/2][K:treble-8] f8 z4 f4 | c12 d4 | B8 A8 | F4 B8 A4 | G8 F8- | F8 z8 | z16 | %12
w: ter, quae|per- vi-|a coe-|li por- ta|ma- nes,|||
 z4 G4 (A2 G2 A2 B2 | c2 B2 c2 A2 B2 c2 d4- | d4) c4 B8 | A4 d4 e4 f2 d2 | e4 f4 z8 | %17
w: et stel- * * *||* la ma-|ris, suc- cur- re ca-|den- ti,|
 c4 d4 e2 f2 d4 | c2 A2 B4 A2 F2 G4 | A2 B2 G4 F4 z4 | F12 F4 | G4 A4 B4 c4 | d4 e4 f8 | z16 | %24
w: suc- cur- re ca- den-|ti, suc- cur- re, suc- cur-|re ca- den- ti,|sur- ge-|re qui cu- rat|po- pu- lo:||
 z16 | (f6 e2 d4) c4 | d4 e4 f8 | f16 | z4 c4 d4 d2 e2 | f8 c4 c4 | d4 d2 e2 f8 | F8 z8 | z16 | %33
w: |tu * * quae|ge- nu- i-|sti,|na- tu- ra mi-|ran- te, na-|tu- ra mi- ran-|te,||
 z8 c8- | c4 A4 B4 c4 | d4 c4 B8 | A8 d8 | =B4 c8 A4 | _B6 B2 A4 G4 | F8 f8- | f4 g4 f4 e4 | %41
w: tu\-|* um san- ctam|Ge- ni- to-|rem, Vir-|go pri- us|ac po- ste- ri-|us, Ga\-|* bri- e- lis|
 f8 c8 | f12 e4 | d8 c8 | d8 c8 | f8 d4 _e4- | e4 c4 d4 B4 | c8 F8 | f8 d4 _e4- | e4 c4 d4 B4 | %50
w: o- re|su- mens|il- lud|A- ve|pec- ca- to\-|* rum mi- se-|re- re,|pec- ca- to\-|* rum mi- se-|
 c16 | F16 |] %52
w: re-|re.|

